X:322
T: Geming chenglegong
N: C1821
O: China, Gansu Ningxian
S: I, 126]
N: Han
R: Xiaodiao]
M: 2/4
L: 1/16
K: F
c2c2f2dc | GBAGF4 | c2c2f2dc | GBAGF4
f2c2f2cc | c2dcB4 | D2F2G2AG | F8
DFDFG4 | D3FG2AG | F8

